X:1050
T: Green Tea
T: Tae Glas
S: B.Breathnach:"Ceol Rince na hEireann" IV/95
Z: B.Black
L: 1/8
M: 4/4
R: reel
K: D
c|d2 dc dAFD|Beed cABc|d2 dc dBAF|GEAF D2 d :|
g|fdad fddf|gebe geeg|fdad fddg|fedc d2 dg|
fdad fddf|gebe geeg|fdec dBAF|GEAF D2 D ||
